X:1
T: Graies Inne Maske
N:
C:adapted by Fried de Metz Herman
S:
A:
O:
R:
M:4/4
K:Em
I:speed 200
%W: A1
% voice 1 (1 lines, 33 notes)
K:Em
M:4/4
L:1/16
e4 e2 f2 g4 e4 |b4 B4 B8 |B4 B2 ^c2 d4 B4 |e4 e8 e4 |G6 G2 A6 A2 |B2 ^c2 d2 c2 B6 B2 |^c2 d2 e2 f2 g4 f4 |e16 |
%W: A2
% voice 1 (1 lines, 33 notes)
e4 e2 f2 g4 e4 |b4 B4 B8 |B4 B2 ^c2 d4 B4 |e4 e8 e4 |G6 G2 A6 A2 |B2 ^c2 d2 c2 B6 B2 |^c2 d2 e2 f2 g4 f4 |e16 |
%W: B1
% voice 1 (1 lines, 24 notes)
e2 f2 g2 a2 b4 b4 |a4 g4 f8 |e4 e4 d4 ^c4 |B16 |d4 B4 f8 |g4 e4 g8 |f6 g2 a8 |g16 |
%W: B2
% voice 1 (1 lines, 21 notes)
g8 f4 e4 |d16 |b8 a4 g4 |f16 |^g4 g4 g4 e4 |^g4 a4 b4 b4 |^c'4 c'4 b4 b4 |^g16 |
%W: C
% voice 1 (1 lines, 18 notes)
M:6/8
L:1/16
e3 f g2 g3 a b2 B6 B4 B2 B3 ^c d2 d3 e f2 A6 A4 A2 |
%W:
% voice 1 (1 lines, 17 notes)
A3 B ^c2 c3 d e2 G6 e4 f2 g3 a b a g2 f4 e6 e6 ||
